icons/modern/chestnut.svg

<svg width="32" height="32" viewBox="0 0 32 32" fill="none" xmlns="http://www.w3.org/2000/svg">
<path d="M29.6793 22.1725L15.9993 17L2.31934 22.1725C3.35934 26.1425 6.83934 29.4525 11.7093 29.4525H20.2793C25.1593 29.4525 28.6393 26.1425 29.6793 22.1725Z" fill="#D88578"/>
<path d="M29.6793 22.1725L15.9993 17L2.31934 22.1725C3.35934 26.1425 6.83934 29.4525 11.7093 29.4525H20.2793C25.1593 29.4525 28.6393 26.1425 29.6793 22.1725Z" fill="url(#paint0_radial_18_32140)"/>
<path d="M29.6793 22.1725L15.9993 17L2.31934 22.1725C3.35934 26.1425 6.83934 29.4525 11.7093 29.4525H20.2793C25.1593 29.4525 28.6393 26.1425 29.6793 22.1725Z" fill="url(#paint1_radial_18_32140)"/>
<path d="M29.6796 22.1725C30.5096 19.0125 29.7896 15.4225 26.9896 12.7525L17.3996 3.5625C16.6196 2.8125 15.3796 2.8125 14.5996 3.5625L5.00955 12.7525C2.20955 15.4325 1.49955 19.0125 2.31955 22.1725H29.6796Z" fill="url(#paint2_linear_18_32140)"/>
<path d="M29.6796 22.1725C30.5096 19.0125 29.7896 15.4225 26.9896 12.7525L17.3996 3.5625C16.6196 2.8125 15.3796 2.8125 14.5996 3.5625L5.00955 12.7525C2.20955 15.4325 1.49955 19.0125 2.31955 22.1725H29.6796Z" fill="url(#paint3_radial_18_32140)"/>
<path d="M29.6796 22.1725C30.5096 19.0125 29.7896 15.4225 26.9896 12.7525L17.3996 3.5625C16.6196 2.8125 15.3796 2.8125 14.5996 3.5625L5.00955 12.7525C2.20955 15.4325 1.49955 19.0125 2.31955 22.1725H29.6796Z" fill="url(#paint4_radial_18_32140)"/>
<defs>
<radialGradient id="paint0_radial_18_32140" cx="0" cy="0" r="1" gradientUnits="userSpaceOnUse" gradientTransform="translate(15.9993 30.75) rotate(90) scale(10 21.9715)">
<stop stop-color="#CC6B7E"/>
<stop offset="0.631579" stop-color="#CD6C75" stop-opacity="0"/>
</radialGradient>
<radialGradient id="paint1_radial_18_32140" cx="0" cy="0" r="1" gradientUnits="userSpaceOnUse" gradientTransform="translate(25.75 22.25) rotate(90) scale(7.2025 17.75)">
<stop offset="0.0867753" stop-color="#E7A277"/>
<stop offset="0.694203" stop-color="#ECA27A" stop-opacity="0"/>
</radialGradient>
<linearGradient id="paint2_linear_18_32140" x1="24.125" y1="9.875" x2="2" y2="18.25" gradientUnits="userSpaceOnUse">
<stop stop-color="#835C55"/>
<stop offset="0.549137" stop-color="#643E38"/>
<stop offset="0.870556" stop-color="#5A403C"/>
</linearGradient>
<radialGradient id="paint3_radial_18_32140" cx="0" cy="0" r="1" gradientUnits="userSpaceOnUse" gradientTransform="translate(23.5 18.25) rotate(89.0122) scale(7.25108 14.5206)">
<stop stop-color="#9A7772"/>
<stop offset="0.509447" stop-color="#916E69" stop-opacity="0.4"/>
<stop offset="1" stop-color="#744450" stop-opacity="0"/>
</radialGradient>
<radialGradient id="paint4_radial_18_32140" cx="0" cy="0" r="1" gradientUnits="userSpaceOnUse" gradientTransform="translate(12.625 24) rotate(86.5936) scale(10.5186 24.1959)">
<stop stop-color="#693848"/>
<stop offset="1" stop-color="#7B4552" stop-opacity="0"/>
</radialGradient>
</defs>
</svg>

<svg width="32" height="32" fill="none" xmlns="http://www.w3.org/2000/svg"><path d="M29.68 22.172 16 17 2.32 22.172c1.04 3.97 4.52 7.28 9.39 7.28h8.57c4.88 0 8.36-3.31 9.4-7.28Z" fill="#D88578"/><path d="M29.68 22.172 16 17 2.32 22.172c1.04 3.97 4.52 7.28 9.39 7.28h8.57c4.88 0 8.36-3.31 9.4-7.28Z" fill="url(#a)"/><path d="M29.68 22.172 16 17 2.32 22.172c1.04 3.97 4.52 7.28 9.39 7.28h8.57c4.88 0 8.36-3.31 9.4-7.28Z" fill="url(#b)"/><path d="M29.68 22.172c.83-3.16.11-6.75-2.69-9.42l-9.59-9.19c-.78-.75-2.02-.75-2.8 0l-9.59 9.19c-2.8 2.68-3.51 6.26-2.69 9.42h27.36Z" fill="url(#c)"/><path d="M29.68 22.172c.83-3.16.11-6.75-2.69-9.42l-9.59-9.19c-.78-.75-2.02-.75-2.8 0l-9.59 9.19c-2.8 2.68-3.51 6.26-2.69 9.42h27.36Z" fill="url(#d)"/><path d="M29.68 22.172c.83-3.16.11-6.75-2.69-9.42l-9.59-9.19c-.78-.75-2.02-.75-2.8 0l-9.59 9.19c-2.8 2.68-3.51 6.26-2.69 9.42h27.36Z" fill="url(#e)"/><defs><radialGradient id="a" cx="0" cy="0" r="1" gradientUnits="userSpaceOnUse" gradientTransform="matrix(0 10 -21.9715 0 16 30.75)"><stop stop-color="#CC6B7E"/><stop offset=".632" stop-color="#CD6C75" stop-opacity="0"/></radialGradient><radialGradient id="b" cx="0" cy="0" r="1" gradientUnits="userSpaceOnUse" gradientTransform="matrix(0 7.2025 -17.75 0 25.75 22.25)"><stop offset=".087" stop-color="#E7A277"/><stop offset=".694" stop-color="#ECA27A" stop-opacity="0"/></radialGradient><radialGradient id="d" cx="0" cy="0" r="1" gradientUnits="userSpaceOnUse" gradientTransform="matrix(.125 7.25 -14.51844 .25033 23.5 18.25)"><stop stop-color="#9A7772"/><stop offset=".509" stop-color="#916E69" stop-opacity=".4"/><stop offset="1" stop-color="#744450" stop-opacity="0"/></radialGradient><radialGradient id="e" cx="0" cy="0" r="1" gradientUnits="userSpaceOnUse" gradientTransform="rotate(86.594 -6.423 18.7) scale(10.5186 24.1959)"><stop stop-color="#693848"/><stop offset="1" stop-color="#7B4552" stop-opacity="0"/></radialGradient><linearGradient id="c" x1="24.125" y1="9.875" x2="2" y2="18.25" gradientUnits="userSpaceOnUse"><stop stop-color="#835C55"/><stop offset=".549" stop-color="#643E38"/><stop offset=".871" stop-color="#5A403C"/></linearGradient></defs></svg>
